X: 4735
T: Boys Of Ballivanich, The
R: reel
M: 4/4
K: Bminor
f2 fe dBBd|A ~B3 faag|f2 fe dBBd|cA A/A/A eAce|
f2 fe dBBd|A ~B3 faaf|g2 gf efed|cA A/A/A eAce:|
fBdA B3 d|e ~f3 faag|fBdA B3 d|cA A/A/A eAce|
fBdA B3 d|e ~f3 faaf|g2 fg efed|cA A/A/A [1eAce:|2 eAcA|
B2 ag effe|dB B/B/B dffe|c2 af efed|cA A/A/A eAce|
d2 ag effe|dB B/B/B df f/f/f|fgfg efed|cA A/A/A [1eAcA:|2 eAce|

